assets/flags-color/Bh.svg

<svg xmlns="http://www.w3.org/2000/svg" viewBox="0 0 512 512"><path fill="#f5f5f5" d="M0 0h209.37v512H0z"/><path fill="#ff4b55" d="M101.579 0l107.789 32-107.789 32 107.789 32-107.789 32 107.789 32-107.789 32 107.789 32-107.789 32 107.789 32-107.789 32 107.789 32-107.789 32 107.789 32-107.789 32 107.789 32-107.789 32H512V0z"/></svg>

<svg xmlns="http://www.w3.org/2000/svg" x="0" y="0" enable-background="new 0 0 512 512" version="1.1" viewBox="0 0 512 512" xml:space="preserve"><path fill="#F5F5F5" d="M0 0H209.37V512H0z"/><path fill="#FF4B55" d="M101.579 0 209.368 32 101.579 64 209.368 96 101.579 128 209.368 160 101.579 192 209.368 224 101.579 256 209.368 288 101.579 320 209.368 352 101.579 384 209.368 416 101.579 448 209.368 480 101.579 512 512 512 512 0z"/></svg>
